X:1
T:Let Jesus Come into Your Heart
T:Let Jesus Come into Your Heart
T:Lelia Naylor Morris
T:Lelia Naylor Morris, 1898
T:Public Domain Courtesy of the Cyber Hymnal™
C:Lelia Naylor Morris
Z:Public Domain
Z:Courtesy of the Cyber Hymnal™
%%score ( 1 2 ) ( 3 4 )
L:1/8
Q:1/4=90
M:6/8
K:Ab
V:1 treble 
V:2 treble 
V:3 bass 
V:4 bass 
V:1
 [CE]>[CE][CE] [CE][A,C][CE] | [CA][DB][Ec] [CE]2 [CA] | [DG]>[DG][DG] | [DG][EA][EB] | %4
w: 1.~If you are tired of the|load of your sin, Let|Je- sus come|in- to your|
w: 2.~If it’s for pur- i- ty|now that you sigh, Let|Je- sus come|in- to your|
w: 3.~If there’s a tem- pest your|voice can- not still, Let|Je- us come|in- to your|
w: 4.~If you would join the glad|songs of the blest, Let|Je- sus come|in- to your|
 ([EA]3 [CE]3) | [CE]>[CE][CE] [CE][A,C][CE] | [CA][DB][Ec] [CE]2 [Ec] | %7
w: heart; *|If you de- sire a new|life to be- gin, Let|
w: heart; *|Fount- ains for cleans- ing are|flow- ing near- by, Let|
w: heart; *|If there’s a void this world|ne- ver can fill, Let|
w: heart; *|If you would en- ter the|man- sions of rest, Let|
 [EB]>[EB][EB] [=DB][DA][DF] | E6 ||"^Refrain" [Ec]3 [CA]2 [DF][CE][A,C][DF] [CE]3 | %10
w: Je- sus come in- to your|heart.||
w: Je- us come in- to your|heart.||
w: Je- sus come in- to your|heart.|Just now, your doubt- ings give o’er;|
w: Je- sus come in- to your|heart.||
 [Ec]3 [Ed]2 [Ec] | [=DB][DF][Dc] [EB]3 | [Ec]3 [_Ge]2 [Ge][Fd][FA][FB] [=Ec]2 [Fd] | %13
w: |||
w: |||
w: Just now, re-|ject Him no more;|Just now, throw o- pen the door; Let|
w: |||
 [Ec]>[GB][EA] [EG][EA][EB] | [EA]6 |] %15
w: ||
w: ||
w: Je- sus come in- to your|heart.|
w: ||
V:2
 x6 | x6 | x3 | x3 | x6 | x6 | x6 | x6 | E6 || x12 | x6 | x6 | x12 | x6 | x6 |] %15
V:3
 [A,,A,]>[A,,A,][A,,A,] [A,,A,][A,,E,][A,,A,] | [A,,A,][A,,A,][A,,A,] [A,,A,]2 [A,,A,] | %2
 [E,B,]>[E,B,][E,B,] | [E,B,][E,C][E,D] | ([A,,C]3 [A,,A,]3) | %5
 [A,,A,]>[A,,A,][A,,A,] [A,,A,][A,,E,][A,,A,] | [A,,A,][A,,A,][A,,A,] [A,,A,]2 [A,,A,] | %7
 [B,,G,]>[B,,G,][B,,G,] [B,,F,][B,,F,][B,,A,] | [E,G,]6 || %9
 [A,,A,]3 [A,,E,]2 [A,,A,][A,,A,][A,,E,][A,,A,] [A,,A,]3 | [A,,A,]3 [G,,B,]2 [A,,A,] | %11
 [B,,A,][B,,A,][B,,A,] [E,G,]3 | A,3 [A,C]2 [D,A,][D,A,][D,F,] [C,G,]2 [B,,B,] x | %13
 [E,A,]>[E,D][E,C] [E,B,][E,C][E,D] | [A,,C]6 |] %15
V:4
 x6 | x6 | x3 | x3 | x6 | x6 | x6 | x6 | x6 || x12 | x6 | x6 | A,3 A, x8 | x6 | x6 |] %15

